src/assets/icons/bed.svg

<svg width="20" height="21" viewBox="0 0 20 21" fill="none" xmlns="http://www.w3.org/2000/svg">
<g clip-path="url(#clip0_139_8314)">
<g clip-path="url(#clip1_139_8314)">
<path d="M10.0119 17.9597C7.01369 17.9597 4.01627 17.9597 1.01806 17.9597C0.714934 17.9597 0.574786 18.0984 0.574786 18.3977C0.574786 18.4752 0.578723 18.5527 0.573999 18.6295C0.5677 18.7225 0.558252 18.8155 0.54093 18.9062C0.476368 19.2372 0.159068 19.5023 -0.220432 19.4984C-0.601507 19.4946 -0.917233 19.2116 -0.974709 18.8481C-0.988094 18.7628 -0.99518 18.6752 -0.99518 18.5891C-0.995967 16.8279 -1.00778 15.0659 -0.991243 13.3046C-0.981795 12.2783 -0.602295 11.3853 0.125212 10.6419C0.566913 10.1907 1.09207 9.86976 1.69282 9.66511C2.16522 9.50465 2.65338 9.45581 3.15098 9.45581C7.76246 9.45736 12.3739 9.45348 16.9854 9.45891C18.3365 9.46046 19.4309 9.9969 20.2419 11.0636C20.6403 11.5884 20.8781 12.1845 20.9592 12.8357C20.9867 13.055 20.9985 13.2783 20.9993 13.5C21.0025 15.2101 21.0017 16.9202 21.0009 18.6302C21.0009 18.8977 20.934 19.1411 20.7104 19.3178C20.4741 19.5046 20.2104 19.5535 19.9293 19.4395C19.66 19.3295 19.49 19.1271 19.4514 18.838C19.4317 18.6922 19.4341 18.5426 19.4301 18.3953C19.4238 18.1574 19.3238 18.0139 19.1239 17.9698C19.0798 17.9597 19.0333 17.9605 18.9876 17.9605C15.9965 17.9605 13.0054 17.9605 10.0135 17.9605L10.0119 17.9597Z" fill="white"/>
<path d="M9.90197 2.5C11.8467 2.5 13.7907 2.5 15.7346 2.5C16.3858 2.5 16.9944 2.64341 17.5195 3.03953C18.1951 3.54884 18.5895 4.21938 18.6226 5.06124C18.651 5.77519 18.6384 6.4907 18.6415 7.20543C18.6439 7.66589 18.6415 8.12636 18.6415 8.58682C18.6415 8.62791 18.6391 8.67132 18.6281 8.71085C18.5943 8.83566 18.5258 8.88527 18.3966 8.86124C18.2557 8.83488 18.1195 8.77829 17.9786 8.76279C17.6471 8.72713 17.3148 8.70233 16.9818 8.68527C16.7597 8.67364 16.6913 8.63411 16.6598 8.41938C16.559 7.73876 15.9189 7.12636 15.1 7.13566C14.1867 7.14574 13.2734 7.13798 12.3609 7.13798C11.6814 7.13798 11.1011 7.53643 10.8704 8.16434C10.8373 8.25426 10.8247 8.35194 10.8074 8.44651C10.7751 8.61628 10.7114 8.67984 10.5397 8.68217C10.1799 8.68605 9.8193 8.68605 9.45949 8.68217C9.29414 8.68062 9.22879 8.61628 9.19887 8.42791C9.15715 8.16357 9.05322 7.92791 8.88315 7.72093C8.5753 7.34574 8.1769 7.14186 7.6856 7.13953C6.74315 7.13488 5.80069 7.13721 4.85745 7.13876C4.06538 7.13953 3.44574 7.74884 3.34496 8.41783C3.31268 8.63411 3.24733 8.67209 3.0253 8.68605C2.65761 8.71008 2.28992 8.74419 1.92302 8.78295C1.81043 8.79457 1.70256 8.84264 1.59076 8.86124C1.4703 8.88062 1.41439 8.84031 1.38054 8.72403C1.36715 8.67829 1.36085 8.62946 1.36085 8.5814C1.36007 7.47674 1.34511 6.37209 1.364 5.26744C1.38369 4.11163 1.92617 3.26202 2.98751 2.74806C3.40795 2.54574 3.86382 2.5 4.32521 2.5C6.18413 2.5 8.04305 2.5 9.90197 2.5Z" fill="white"/>
</g>
</g>
<defs>
<clipPath id="clip0_139_8314">
<rect width="20" height="20" fill="white" transform="translate(0 0.5)"/>
</clipPath>
<clipPath id="clip1_139_8314">
<rect width="22" height="17" fill="white" transform="translate(-1 2.5)"/>
</clipPath>
</defs>
</svg>

<svg xmlns="http://www.w3.org/2000/svg" width="20" height="21" fill="none" xmlns:v="https://vecta.io/nano"><g clip-path="url(#A)"><g clip-path="url(#B)" fill="#fff"><path d="M10.012 17.96H1.018c-.303 0-.443.139-.443.438l-.001.232a2.31 2.31 0 0 1-.033.277c-.065.331-.382.596-.761.592s-.697-.287-.754-.65a1.68 1.68 0 0 1-.02-.259l.004-5.284c.009-1.026.389-1.919 1.116-2.663a3.93 3.93 0 0 1 1.568-.977c.472-.16.961-.209 1.458-.209l13.834.003a3.9 3.9 0 0 1 3.257 1.605 3.63 3.63 0 0 1 .717 1.772 5.66 5.66 0 0 1 .04.664l.002 5.13c0 .268-.067.511-.291.688a.74.74 0 0 1-.781.122c-.269-.11-.439-.312-.478-.601-.02-.146-.017-.295-.021-.443-.006-.238-.106-.381-.306-.425-.044-.01-.091-.009-.136-.009h-8.974l-.002-.001zM9.902 2.5h5.833c.651 0 1.26.143 1.785.54.676.509 1.07 1.18 1.103 2.022l.019 2.144v1.381a.47.47 0 0 1-.013.124c-.034.125-.102.174-.232.15-.141-.026-.277-.083-.418-.098l-.997-.078c-.222-.012-.291-.051-.322-.266-.101-.681-.741-1.293-1.56-1.284l-2.739.002c-.68 0-1.26.398-1.491 1.026-.033.09-.046.188-.063.282-.032.17-.096.233-.268.236h-1.08c-.165-.002-.231-.066-.261-.254-.042-.264-.146-.5-.316-.707-.308-.375-.706-.579-1.198-.581l-2.828-.001c-.792.001-1.412.61-1.512 1.279-.032.216-.098.254-.32.268l-1.102.097c-.113.012-.22.06-.332.078-.12.019-.176-.021-.21-.137a.51.51 0 0 1-.02-.143l.003-3.314c.02-1.156.562-2.005 1.624-2.519.42-.202.876-.248 1.338-.248h5.577z"/></g></g><defs><clipPath id="A"><path fill="#fff" transform="translate(0 .5)" d="M0 0h20v20H0z"/></clipPath><clipPath id="B"><path fill="#fff" transform="translate(-1 2.5)" d="M0 0h22v17H0z"/></clipPath></defs></svg>
